src/assets/svg/radio-station.svg

<svg height="90" viewBox="0 0 90 90" width="90" xmlns="http://www.w3.org/2000/svg" xmlns:xlink="http://www.w3.org/1999/xlink"><mask id="a" fill="#fff"><path d="m14 85.9660079h61.9967624v-81.9660079h-61.9967624z" fill="none"/></mask><g fill="#535050" fill-rule="evenodd"><path d="m55.9972621 46.5951014c-.7276501 0-1.4127258-.282892-1.928637-.797446-.5155875-.5126208-.7990392-1.1937525-.7995248-1.9183811 0-.7238232.2834517-1.4059215.7990391-1.9177368 6.0080105-5.9816503 6.0080105-15.7100078.0004857-21.6873084-.5152637-.5135874-.7990392-1.1947191-.7990392-1.9193478 0-.7247897.2837755-1.406888.7990392-1.9195088.5159112-.5135874 1.2017963-.7955128 1.931389-.7955128.7281358 0 1.4120783.2819254 1.9263708.7937407 3.9340052 3.915057 6.1002819 9.1297092 6.1002819 14.6829941-.0004856 5.5532849-2.1675718 10.7669705-6.1010913 14.6820275-.5160732.5135874-1.200987.7964794-1.9283134.7964794z"/><path d="m63.1318433 58.2348322c-.7286214 0-1.4140208-.2828919-1.9296083-.7956739-1.0632272-1.058106-1.0641984-2.7813948-.0008094-3.839662 6.0253316-5.9959882 9.3435457-13.9794696 9.3440313-22.4812102.0003238-8.5025462-3.3182141-16.4869942-9.3440313-22.48298237-1.063389-1.05810609-1.0624178-2.78155599.0017807-3.84046758.5146162-.51278193 1.19953-.79470727 1.927342-.79470727.7281358 0 1.4130496.28240864 1.9281514.79551277 7.0535927 7.01865225 10.9380627 16.36649115 10.9380627 26.32183895 0 9.9553477-3.88447 19.3031866-10.937577 26.3226444-.5151018.5118153-1.1992063.7947072-1.9273421.7947072"/><path d="m33.9995326 46.5951014c-.7276501 0-1.4127258-.282892-1.928637-.7964794-3.9336815-3.915057-6.100282-9.1287426-6.1007677-14.6820275 0-5.5532849 2.1662768-10.7679371 6.0997964-14.6829941.514778-.5118153 1.1987206-.7937407 1.9268564-.7937407.7295927 0 1.4149921.2819254 1.9305796.7955128.5160731.5135874.7998486 1.1947191.7998486 1.9195088 0 .7246287-.2837755 1.4057604-.7993629 1.9193478-6.0076867 5.9773006-6.0072011 15.7064636.0003237 21.6865029.5160731.5126208.7995248 1.1947191.7995248 1.9185423-.0004856.7246286-.2839373 1.4057603-.7990391 1.9183811-.5163969.514554-1.2014726.797446-1.9291228.797446"/><path d="m26.8645144 58.2348322c-.7276502-.0008055-1.4122402-.2828919-1.9268564-.7947072-7.0531071-7.0194578-10.9375771-16.3672967-10.9375771-26.3226444 0-9.9553478 3.88447-19.3031867 10.9375771-26.32183895.5155874-.51310413 1.2005013-.79551277 1.9281514-.79551277.7281358 0 1.4127258.28192534 1.9278277.79470727 1.0641984 1.05891159 1.0650078 2.78236149.0017807 3.84046758-6.0258173 5.99598817-9.344517 13.98043617-9.3440314 22.48298237.0004857 8.5017406 3.3186998 16.485222 9.3440314 22.4812102 1.0632271 1.0582672 1.0624177 2.781556-.0017807 3.8406287-.5151019.5118153-1.2005013.7947072-1.9286371.7947072z"/><path d="m49.6953749 35.7915933c-2.5944491 2.5801808-6.7994412 2.5811474-9.3938903 0-2.5944491-2.5827583-2.5926684-6.7666915 0-9.3478389 2.5954204-2.5827583 6.7976606-2.5819528 9.3921097.0009666 2.594449 2.5809863 2.5962297 6.7649195.0017806 9.3468723"/><path d="m70.1775687 81.971464-20.4954517-37.3240157c-.8448512-1.5383457-2.4659165-2.4951198-4.2274935-2.4951198-1.761577 0-3.3826423.9567741-4.2273316 2.4951198l-20.4956136 37.3240157c-.987953 1.799167.3205222 3.9944794 2.3806058 3.9944794.9918381 0 1.9045169-.5385579 2.380282-1.4044715l19.9620574-36.3277721 19.9620574 36.3277721c.4757651.8659136 1.3886058 1.4044715 2.380282 1.4044715 2.0602455 0 3.3685588-2.1953124 2.3806058-3.9944794"/><path d="m33.6672742 64.9216503h24.5693211v-4.4956621h-24.5693211z" mask="url(#a)"/><path d="m27.3516919 78.5455717h37.2003238v-4.4956621h-37.2003238z" mask="url(#a)"/></g></svg>

<?xml version="1.0" encoding="UTF-8" standalone="no"?>
<svg width="90px" height="90px" viewBox="0 0 90 90" version="1.1" xmlns="http://www.w3.org/2000/svg" xmlns:xlink="http://www.w3.org/1999/xlink">
    <!-- Generator: Sketch 3.6.1 (26313) - http://www.bohemiancoding.com/sketch -->
    <title>radio-station</title>
    <desc>Created with Sketch.</desc>
    <defs>
        <path id="path-1" d="M14,85.9660079 L75.9967624,85.9660079 L75.9967624,4 L14,4 L14,85.9660079 Z"></path>
    </defs>
    <g id="Page-1" stroke="none" stroke-width="1" fill="none" fill-rule="evenodd">
        <g id="radio-station">
            <path d="M55.9972621,46.5951014 C55.269612,46.5951014 54.5845363,46.3122094 54.0686251,45.7976554 C53.5530376,45.2850346 53.2695859,44.6039029 53.2691003,43.8792743 C53.2691003,43.1554511 53.552552,42.4733528 54.0681394,41.9615375 C60.0761499,35.9798872 60.0761499,26.2515297 54.0686251,20.2742291 C53.5533614,19.7606417 53.2695859,19.07951 53.2695859,18.3548813 C53.2695859,17.6300916 53.5533614,16.9479933 54.0686251,16.4353725 C54.5845363,15.9217851 55.2704214,15.6398597 56.0000141,15.6398597 C56.7281499,15.6398597 57.4120924,15.9217851 57.9263849,16.4336004 C61.8603901,20.3486574 64.0266668,25.5633096 64.0266668,31.1165945 C64.0261812,36.6698794 61.859095,41.883565 57.9255755,45.798622 C57.4095023,46.3122094 56.7245885,46.5951014 55.9972621,46.5951014 L55.9972621,46.5951014 Z" id="Fill-1" fill="#535050"></path>
            <path d="M63.1318433,58.2348322 C62.4032219,58.2348322 61.7178225,57.9519403 61.202235,57.4391583 C60.1390078,56.3810523 60.1380366,54.6577635 61.2014256,53.5994963 C67.2267572,47.6035081 70.5449713,39.6200267 70.5454569,31.1182861 C70.5457807,22.6157399 67.2272428,14.6312919 61.2014256,8.63530373 C60.1380366,7.57719764 60.1390078,5.85374774 61.2032063,4.79483615 C61.7178225,4.28205422 62.4027363,4.00012888 63.1305483,4.00012888 C63.8586841,4.00012888 64.5435979,4.28253752 65.0586997,4.79564165 C72.1122924,11.8142939 75.9967624,21.1621328 75.9967624,31.1174806 C75.9967624,41.0728283 72.1122924,50.4206672 65.0591854,57.440125 C64.5440836,57.9519403 63.8599791,58.2348322 63.1318433,58.2348322" id="Fill-3" fill="#535050"></path>
            <path d="M33.9995326,46.5951014 C33.2718825,46.5951014 32.5868068,46.3122094 32.0708956,45.798622 C28.1372141,41.883565 25.9706136,36.6698794 25.9701279,31.1165945 C25.9701279,25.5633096 28.1364047,20.3486574 32.0699243,16.4336004 C32.5847023,15.9217851 33.2686449,15.6398597 33.9967807,15.6398597 C34.7263734,15.6398597 35.4117728,15.9217851 35.9273603,16.4353725 C36.4434334,16.9489599 36.7272089,17.6300916 36.7272089,18.3548813 C36.7272089,19.07951 36.4434334,19.7606417 35.927846,20.2742291 C29.9201593,26.2515297 29.9206449,35.9806927 35.9281697,41.960732 C36.4442428,42.4733528 36.7276945,43.1554511 36.7276945,43.8792743 C36.7272089,44.6039029 36.4437572,45.2850346 35.9286554,45.7976554 C35.4122585,46.3122094 34.7271828,46.5951014 33.9995326,46.5951014" id="Fill-5" fill="#535050"></path>
            <path d="M26.8645144,58.2348322 C26.1368642,58.2340267 25.4522742,57.9519403 24.937658,57.440125 C17.8845509,50.4206672 14.0000809,41.0728283 14.0000809,31.1174806 C14.0000809,21.1621328 17.8845509,11.8142939 24.937658,4.79564165 C25.4532454,4.28253752 26.1381593,4.00012888 26.8658094,4.00012888 C27.5939452,4.00012888 28.2785352,4.28205422 28.7936371,4.79483615 C29.8578355,5.85374774 29.8586449,7.57719764 28.7954178,8.63530373 C22.7696005,14.6312919 19.4509008,22.6157399 19.4513864,31.1182861 C19.4518721,39.6200267 22.7700862,47.6035081 28.7954178,53.5994963 C29.8586449,54.6577635 29.8578355,56.3810523 28.7936371,57.440125 C28.2785352,57.9519403 27.5931358,58.2348322 26.865,58.2348322 L26.8645144,58.2348322 Z" id="Fill-7" fill="#535050"></path>
            <path d="M49.6953749,35.7915933 C47.1009258,38.3717741 42.8959337,38.3727407 40.3014846,35.7915933 C37.7070355,33.208835 37.7088162,29.0249018 40.3014846,26.4437544 C42.896905,23.8609961 47.0991452,23.8618016 49.6935943,26.444721 C52.2880433,29.0257073 52.289824,33.2096405 49.6953749,35.7915933" id="Fill-9" fill="#535050"></path>
            <path d="M70.1775687,81.971464 L49.682117,44.6474483 C48.8372658,43.1091026 47.2162005,42.1523285 45.4546235,42.1523285 L45.4546235,42.1523285 C43.6930465,42.1523285 42.0719812,43.1091026 41.2272919,44.6474483 L20.7316783,81.971464 C19.7437253,83.770631 21.0522005,85.9659434 23.1122841,85.9659434 C24.1041222,85.9659434 25.016801,85.4273855 25.4925661,84.5614719 L45.4546235,48.2336998 L65.4166809,84.5614719 C65.892446,85.4273855 66.8052867,85.9659434 67.7969629,85.9659434 L67.7969629,85.9659434 C69.8572084,85.9659434 71.1655217,83.770631 70.1775687,81.971464" id="Fill-11" fill="#535050"></path>
            <mask id="mask-2" fill="white">
                <use xlink:href="#path-1"></use>
            </mask>
            <g id="Clip-14"></g>
            <path d="M33.6672742,64.9216503 L58.2365953,64.9216503 L58.2365953,60.4259882 L33.6672742,60.4259882 L33.6672742,64.9216503 Z" id="Fill-13" fill="#535050" mask="url(#mask-2)"></path>
            <path d="M27.3516919,78.5455717 L64.5520157,78.5455717 L64.5520157,74.0499096 L27.3516919,74.0499096 L27.3516919,78.5455717 Z" id="Fill-15" fill="#535050" mask="url(#mask-2)"></path>
        </g>
    </g>
</svg>
